public/images/logos/jd.svg

<?xml version="1.0" encoding="UTF-8" standalone="no"?>
<svg width="32" height="32" viewBox="0 0 32.000001 32.000001" version="1.1" id="svg950" xmlns="http://www.w3.org/2000/svg" xmlns:svg="http://www.w3.org/2000/svg" xmlns:rdf="http://www.w3.org/1999/02/22-rdf-syntax-ns#" xmlns:cc="http://creativecommons.org/ns#" xmlns:dc="http://purl.org/dc/elements/1.1/">
  <defs id="defs10">
    <clipPath clipPathUnits="userSpaceOnUse" id="clipPath970">
      <path id="path970" style="display:none;fill:#ff0000;stroke-width:0.410418" d="M 14.068359,6.3300781 V 25.666016 h 4.105469 c 3.484451,0 6.188472,-0.820848 8.03125,-2.429688 C 28.047857,21.627489 29,19.131492 29,16 29,12.868508 28.03144,10.352386 26.205078,8.7558594 v 0.00391 C 24.366405,7.1468216 21.662384,6.3300781 18.173828,6.3300781 Z M 8.4101562,6.34375 8.4179688,18.001953 A 9.5504338,9.5504338 0 0 1 8.1621094,20.669922 2.4378848,2.4378848 0 0 1 7.3417969,21.832031 4.5515391,4.5515391 0 0 1 5.671875,22.611328 10.088082,10.088082 0 0 1 3.3203125,22.867188 H 3 v 2.802734 h 0.4589844 c 2.6841357,0 4.7868646,-0.575266 6.0878906,-1.6875 1.301026,-1.112233 2.005859,-2.87257 2.005859,-5.150391 V 6.34375 Z M 17.09375,9.1542969 h 1.427734 c 2.462511,0 4.335349,0.5711621 5.5625,1.6875001 1.22715,1.116337 1.837891,2.871777 1.837891,5.166015 0,2.294238 -0.635365,4.064142 -1.837891,5.164063 v -0.0039 c -1.231255,1.124546 -3.099989,1.693359 -5.5625,1.693359 H 17.09375 Z" />
      <path id="lpe_path-effect970" style="fill:#ff0000;stroke-width:0.410418" class="powerclip" d="M -5.0000005,-5.0000205 H 37 V 37.000021 H -5.0000005 Z M 14.068359,6.3300781 V 25.666016 h 4.105469 c 3.484451,0 6.188472,-0.820848 8.03125,-2.429688 C 28.047857,21.627489 29,19.131492 29,16 29,12.868508 28.03144,10.352386 26.205078,8.7558594 v 0.00391 C 24.366405,7.1468216 21.662384,6.3300781 18.173828,6.3300781 Z M 8.4101562,6.34375 8.4179688,18.001953 A 9.5504338,9.5504338 0 0 1 8.1621094,20.669922 2.4378848,2.4378848 0 0 1 7.3417969,21.832031 4.5515391,4.5515391 0 0 1 5.671875,22.611328 10.088082,10.088082 0 0 1 3.3203125,22.867188 H 3 v 2.802734 h 0.4589844 c 2.6841357,0 4.7868646,-0.575266 6.0878906,-1.6875 1.301026,-1.112233 2.005859,-2.87257 2.005859,-5.150391 V 6.34375 Z M 17.09375,9.1542969 V 22.861334 h 1.427734 c 2.462511,0 4.331245,-0.568813 5.5625,-1.693359 v 0.0039 c 1.202526,-1.099921 1.837891,-2.869825 1.837891,-5.164063 0,-2.294238 -0.610741,-4.049678 -1.837891,-5.166015 -1.227151,-1.116338 -3.099989,-1.6875001 -5.5625,-1.6875001 z" />
    </clipPath>
  </defs>
  <title id="title10">JD.com logo - Brandlogos.net</title>
  <path style="opacity:0.94;fill:#000000;fill-rule:evenodd;stroke:#000000;stroke-width:12.3231;stroke-linecap:round;paint-order:stroke fill markers" id="rect951" width="19.676901" height="19.676941" x="6.1615496" y="6.1615295" ry="0" clip-path="url(#clipPath970)" d="M 6.1615496,6.1615295 H 25.83845 V 25.83847 H 6.1615496 Z" />
  <metadata id="metadata950">
    <rdf:RDF>
      <cc:Work rdf:about="">
        <dc:title>JD.com logo - Brandlogos.net</dc:title>
      </cc:Work>
    </rdf:RDF>
  </metadata>
</svg>

<svg width="32" height="32" xmlns="http://www.w3.org/2000/svg">
  <defs>
    <clipPath clipPathUnits="userSpaceOnUse" id="a">
      <path style="fill:red;stroke-width:.410418" class="powerclip" d="M-5-5h42v42H-5ZM14.068 6.33v19.336h4.106c3.484 0 6.188-.82 8.031-2.43C28.048 21.627 29 19.131 29 16c0-3.131-.969-5.648-2.795-7.244v.004c-1.839-1.613-4.543-2.43-8.031-2.43Zm-5.658.014.008 11.658a9.55 9.55 0 0 1-.256 2.668 2.438 2.438 0 0 1-.82 1.162 4.552 4.552 0 0 1-1.67.78 10.088 10.088 0 0 1-2.352.255H3v2.803h.459c2.684 0 4.787-.575 6.088-1.688 1.3-1.112 2.006-2.872 2.006-5.15V6.344Zm8.684 2.81v13.707h1.427c2.463 0 4.332-.568 5.563-1.693v.004c1.203-1.1 1.838-2.87 1.838-5.164 0-2.294-.61-4.05-1.838-5.166-1.227-1.117-3.1-1.688-5.563-1.688z"/>
    </clipPath>
  </defs>
  <path style="fill:#000;fill-rule:evenodd;stroke:#000;stroke-width:12.3231;stroke-linecap:round;paint-order:stroke fill markers" clip-path="url(#a)" d="M6.162 6.162h19.676v19.676H6.162Z"/>
</svg>
